!!!COM: Robert Schumann
!!!CNT: Deutsch
!!!TXO: Deutsch
!!!OTL: Sag'an, o lieber Vogel mein
!!!LYR: Hebbel
!!!OPR: Lieder und Gesa2nge, i
!!!OPS: Op.27
!!!ONM: No. 1
!!!ENC: Ben Fuhrman
!!!YOR: Schumann Lieder - Max Friedlaender, ed.,
!!!YOR: New York: C. F. Peters, Vol. 1
!!!ODT: 1840/
!!NB: Vocal melody and text only encoded.
!!NB: First instance of melodic material only encoded.
**kern	**silbe
*clefG2	*
*k[f#c#g#]	*
*M4/4	*
!!created: 6/7/06 9:55
!!proofed and posted: 6/7/06 9:55
!!edit time: 21 minutes
=	=
2.r	.
{4e	{"Sag'
=1	=1
4.e	an
8c#	o
4c#	lie-
4e	-ber
=2	=2
4.cc#	Vo-
8b	-gel
4a	mein,
4e	sag'
=3	=3
4.f#	an,
8g#	wo-
8a	-hin
8a	die
8cc#	Rei-
8b	-se
=4	=4
2.g#}	dein?"}
4r	.
=5	=5
{4cc#	{Weiss
8.b	bicht,
16a	wo-
2b	-hin?
=6	=6
8r	.
8cc#	mich
8.b	treibt
16a	der
4.b	Sinn,
8e	drum
=7	=7
4.f#	muss
8g#	der
(4a	Pfad
8cc#)	|
8b	wohl
=8	=8
4a	rich-
4g	-tig
4a}	sein.}
{4e	{"Du
=9	=9
4.e	hast
8c#	die
4c#	scho2-
4e	-ne
=10	=10
4.cc#	Fer-
8b	-ne
4a	nie
4e	ge-
=11	=11
4.f#	-se-
8g#	-hen,
8a	und
8a	du
8cc#	glaubst
8b	an
=12	=12
2.g#}	sie?"}
4r	.
=13	=13
{4cc#	{Du
8.b	fra2gst
16a	mich
2b	viel,
=14	=14
8r	.
8cc#	und
8.b	das
16a	ist
4.b	Spiel,
8e	die
=15	=15
4.f#	Ant-
8g#	-wort
(4a	a-
8cc#)	|
8b	-ber
=16	=16
4a	macht
4g#	mir
4a}	Mu2h'.}
{4a	{Nun
=17	=17
4.f#	zog
8g#	in
4a	gla2u-
4b	-big
=18	=18
4.a	from-
8g#	-mem
4g#	Dinn
4g#	der
=19	=19
4.e	Vo-
8f#	-gel
4gn	u2-
4a	-bers
=20	=20
4.gn	Meer
8f#	da-
4f#	-hin,
4f#	und
=21	=21
4.a#	lin-
8a#	-de
4b	Luft
4b	und
=22	=22
4.ee	su2-
8ee	-sser
4dd	Duft,
4f#	sie
=23	=23
4f#	wur-
4g#	-den
(4an	wirk-
8cc#)	|
8b	-lich
=24	=24
4.g#	sein
8g#	Ge-
4a	-winn,
4a	sie
=25	=25
4.f#	wur-
8g#	-den
(4a	wirk-
8cc#)	|
8b	-lich
=26	=26
4.g#	sein
8g#	Ge-
2a}	-winn.}
==	==
*-	*-
